X:1
T:Gollum's Song
C:Howard Shore
Z:Merecraft of Laurelin
Q:1/4=104
M:4/4
L:1/8
K:C
G,2 g2 _b2 g2 |_b2 g2 a2 b2 |b4 ^f4 |z2 g2 _b2 g2 |_b3 =b a2 g2 |b6 ^g2 |b8 |z2 b2 a2 g2 |g6 ga |g4 ^f4 |e4 ^f3 f |g4 c2 (c2 |c2) c2 d2 _e2 |_e8 |d8 |^G,2 G2 B2 ^c2 |^d8 |B,2 B2 d2 B2 |B8 |C,2 c2 _e2 f2 |
g8 |D,2 ^f2 f2 e2 |^f8 |B,4 ^d4 |B6 A2 |d2 ^F,2 B,2 F,2 |D4 B,4 |C,4 c4 |c4 z c dc |c2 A,2 D2 A,2 |^F4 D4 |G,2 G2 _B2 G2 |_B8 |B,2 B2 d2 B2 |B8 |G,2 G2 _B2 G2 |_B3 B A2 G2 |B,2 B2 B3 A |B8 |C,2 B2 A2 G2 |
G6 G2 |G4 ^F2 E2 |^F6 FF |G6 CC |C2 D4 _E2 |D8 |^G,2 G2 B2 ^c2 |^d6 d2 |d3 B d2 B2 |B8 |C,2 c2 _e2 f2 |g6 g2 |g2 ^f2 f3 e |^f8 |B,4 ^F2 ^d2 |B6 A2 |d2 ^F,2 B,2 F,2 |D4 B,4 |C,4 _e4 |_e4 z e ge |_e8 |
d6 FF |G6 CC |C2 D4 _E2 |D8 |D4 z2 ^FF |G6 CC |C2 D4 _E2 |D8 |]
%End of file
